tools/download-figma-icons/icons/outlined-large/connector-type3.svg

<svg xmlns="http://www.w3.org/2000/svg" width="64" height="64" fill="none" viewBox="0 0 64 64"><path fill="currentColor" d="M32 0C19.87 0 10 9.87 10 22v20c0 12.13 9.87 22 22 22s22-9.87 22-22V22C54 9.87 44.13 0 32 0m19 42c0 10.48-8.52 19-19 19s-19-8.52-19-19V22c0-9.97 7.72-18.15 17.5-18.92V6c0 .83.67 1.5 1.5 1.5s1.5-.67 1.5-1.5V3.08C43.28 3.85 51 12.03 51 22z"/><path fill="currentColor" d="M22 32c2.76 0 5-2.24 5-5s-2.24-5-5-5-5 2.24-5 5 2.24 5 5 5m0-7c1.1 0 2 .9 2 2s-.9 2-2 2-2-.9-2-2 .9-2 2-2m0-7c1.65 0 3-1.35 3-3s-1.35-3-3-3-3 1.35-3 3 1.35 3 3 3m0-4c.55 0 1 .45 1 1s-.45 1-1 1-1-.45-1-1 .45-1 1-1m20 4c1.65 0 3-1.35 3-3s-1.35-3-3-3-3 1.35-3 3 1.35 3 3 3m0-4c.55 0 1 .45 1 1s-.45 1-1 1-1-.45-1-1 .45-1 1-1m-5 13c0 2.76 2.24 5 5 5s5-2.24 5-5-2.24-5-5-5-5 2.24-5 5m7 0c0 1.1-.9 2-2 2s-2-.9-2-2 .9-2 2-2 2 .9 2 2m-22 9c-2.76 0-5 2.24-5 5s2.24 5 5 5 5-2.24 5-5-2.24-5-5-5m0 7c-1.1 0-2-.9-2-2s.9-2 2-2 2 .9 2 2-.9 2-2 2m20-7c-2.76 0-5 2.24-5 5s2.24 5 5 5 5-2.24 5-5-2.24-5-5-5m0 7c-1.1 0-2-.9-2-2s.9-2 2-2 2 .9 2 2-.9 2-2 2m-10 4c-2.76 0-5 2.24-5 5s2.24 5 5 5 5-2.24 5-5-2.24-5-5-5m0 7c-1.1 0-2-.9-2-2s.9-2 2-2 2 .9 2 2-.9 2-2 2"/></svg>

<svg width="64" height="64" viewBox="0 0 64 64" fill="none" xmlns="http://www.w3.org/2000/svg">
<path d="M32 0C19.87 0 10 9.87 10 22V42C10 54.13 19.87 64 32 64C44.13 64 54 54.13 54 42V22C54 9.87 44.13 0 32 0ZM51 42C51 52.48 42.48 61 32 61C21.52 61 13 52.48 13 42V22C13 12.03 20.72 3.85 30.5 3.08V6C30.5 6.83 31.17 7.5 32 7.5C32.83 7.5 33.5 6.83 33.5 6V3.08C43.28 3.85 51 12.03 51 22V42Z" fill="black"/>
<path d="M22 32C24.76 32 27 29.76 27 27C27 24.24 24.76 22 22 22C19.24 22 17 24.24 17 27C17 29.76 19.24 32 22 32ZM22 25C23.1 25 24 25.9 24 27C24 28.1 23.1 29 22 29C20.9 29 20 28.1 20 27C20 25.9 20.9 25 22 25Z" fill="black"/>
<path d="M22 18C23.65 18 25 16.65 25 15C25 13.35 23.65 12 22 12C20.35 12 19 13.35 19 15C19 16.65 20.35 18 22 18ZM22 14C22.55 14 23 14.45 23 15C23 15.55 22.55 16 22 16C21.45 16 21 15.55 21 15C21 14.45 21.45 14 22 14Z" fill="black"/>
<path d="M42 18C43.65 18 45 16.65 45 15C45 13.35 43.65 12 42 12C40.35 12 39 13.35 39 15C39 16.65 40.35 18 42 18ZM42 14C42.55 14 43 14.45 43 15C43 15.55 42.55 16 42 16C41.45 16 41 15.55 41 15C41 14.45 41.45 14 42 14Z" fill="black"/>
<path d="M37 27C37 29.76 39.24 32 42 32C44.76 32 47 29.76 47 27C47 24.24 44.76 22 42 22C39.24 22 37 24.24 37 27ZM44 27C44 28.1 43.1 29 42 29C40.9 29 40 28.1 40 27C40 25.9 40.9 25 42 25C43.1 25 44 25.9 44 27Z" fill="black"/>
<path d="M22 36C19.24 36 17 38.24 17 41C17 43.76 19.24 46 22 46C24.76 46 27 43.76 27 41C27 38.24 24.76 36 22 36ZM22 43C20.9 43 20 42.1 20 41C20 39.9 20.9 39 22 39C23.1 39 24 39.9 24 41C24 42.1 23.1 43 22 43Z" fill="black"/>
<path d="M42 36C39.24 36 37 38.24 37 41C37 43.76 39.24 46 42 46C44.76 46 47 43.76 47 41C47 38.24 44.76 36 42 36ZM42 43C40.9 43 40 42.1 40 41C40 39.9 40.9 39 42 39C43.1 39 44 39.9 44 41C44 42.1 43.1 43 42 43Z" fill="black"/>
<path d="M32 47C29.24 47 27 49.24 27 52C27 54.76 29.24 57 32 57C34.76 57 37 54.76 37 52C37 49.24 34.76 47 32 47ZM32 54C30.9 54 30 53.1 30 52C30 50.9 30.9 50 32 50C33.1 50 34 50.9 34 52C34 53.1 33.1 54 32 54Z" fill="black"/>
</svg>
